X:1
T:A Hundred Pipers
M:6/8
K:HP
|: {gfg}f2A1 {g}A3/2B/2{G}A1|{gBd}B2d1{gdc}d2{gf}g1|{ag}a2f1 {gfg}f3/2e/2d1|{gfg}f2e1 {g}e3/2d/2e1|!
{gfg}f2A1 {g}A3/2B/2{G}A1|{gBd}B2 d1{gdc}d2{gf}g1|{ag}a2f1 {g}e3/2d/2e1|1!rbstop!x{g}d3{G}d3 :|2!rbstop!x {g}d3{G}d2 ||!
|:{g}c/4d3/4|{g}e2{GdG}e1 {g}e3/2c/2e1|{gfg}f2a1 {g}a3/2g/2f1|{gef}e2c1 {gcd}c3/2B/2{G}A1|{gcd}c2{e}B1 {G}B3/2c/2d1|!
{g}e2{GdG}e1 {g}e3/2c/2e1|{gfg}f2a1 {g}a3/2g/2f1|{gef}e2c1 {gBd}B3/2A/2B1|{g}A3{GAG}A2:|!

